X:1
T:20.  Auf diesen Tag bedenken wir
T:Hugo Distler
T:Johannes Zwick (1537)
T:20.  Today We All Remember Well Auf diesen Tag bedenken wir Ascension
C:Hugo Distler
Z:Johannes Zwick
Z:(1537)
%%score [ 1 ( 2 3 ) ( 4 5 ) ]
L:1/8
Q:1/4=84
M:4/4
K:F
V:1 treble nm="Soprano"
V:2 treble nm="Alto"
V:3 treble 
V:4 bass nm="Baritone"
V:5 bass 
V:1
 F4 F2 F2 | B2 A2 c2 d2 | !breath!c4 c4 | c2 d2 (BA) G2 | (A2 G2) F4 | F4 F2 F2 | B2 A2 c2 d2 | %7
w: 1. To- day we|all re- mem- ber|well that|Christ has gone _ to|hea- * ven,|and thank our|God most fer- vent-|
w: 2. Praise be to|God, the way is|straight, the|road to hea- * ven|o- * pen.|Christ o- pens|up the splen- did|
w: 3. Who fol- lows|not nor does His|will toward|God is liv- * ing|false- * ly;|for He will|block to flesh and|
w: 4. The heav'n- ly|jour- ney starts with-|in, un-|til we find _ the|Fa- * ther|and al- ways|shun the world of|
w: 5. Then joy shall|fill our days yet|more when|God to Je- * sus|takes _ us|and to Him-|self through heav- en's|
 !breath!c4 c4 | c2 d2 (BA) G2 | (A2 G2) F4 | G2 (_E3 F) (GA) | B2 c2 d2 d2 | !breath!c4 c4 | %13
w: ly and|pray that He _ pre-|serve _ us|poor sin- * ners _|who on earth are|bound, and|
w: gate which|ev- er had _ been|clos- * ed.|Who trusts _ in _|this lives joy- ful-|ly and|
w: blood the|road to heav- * en's|glo- * ry.|The key _ is _|faith. To Him be|true and|
w: sin to|prove us God's _ own|chil- * dren;|we lift _ our _|eyes, His eyes look|down His|
w: door, as|we in faith _ de-|clare _ it.|There will _ our _|spir- its find their|voice and|
 B2 c2 d3 c | _e2 d2 !breath!c4 | F4 G2 F2 | _E2 D2 (E2 F2) | !breath!G4 c4 | (B2 G2) (_E2 F2) | %19
w: who, with man- y|dan- gers round,|strive hope- less-|ly with- out _|Him. Hal-|le- * lu- *|
w: strives that he pre-|pared may be|our Lord to|fol- low af- *|ter. *||
w: right- eous- ness will|fol- low you,|as God in|heav'n has or- *|dered. *||
w: faith- ful- ness and|love to show|un- til we|meet in hea- *|ven. *||
w: in e- ter- nal|song re- joice.|God will- ing,|we shall reach _|it. *||
 !breath!G4 F2 F2 | G8 | F8 |] %22
w: ja, hal- le-|lu-|ja!|
w: |||
w: |||
w: |||
w: |||
V:2
 z2 D2 D2 C2 | DE F4 F2 | !breath!E2 (A3 G F2) | G2 (BA) G4 | F2 (_ED) C4 | z2 D2 D2 C2 | %6
w: 1. To- day we|all re- mem- ber|well that _ _|Christ has _ gone|to hea- * ven,|and thank our|
w: 2. Praise be to|God, the way is|straight, the _ _|road to _ hea-|ven o- * pen.|Christ o- pens|
w: 3. Who fol- lows|not nor does His|will toward _ _|God is _ liv-|ing false- * ly;|for He will|
w: 4. The heav'n- ly|jour- ney starts with-|in, un- * *|til we _ find|the Fa- * ther|and al- ways|
w: 5. Then joy shall|fill our days yet|more when _ _|God to _ Je-|sus takes _ us|and to Him-|
 DE F4 F2 | !breath!E2 (A3 G F2) | G2 (BA) G4 | F2 (_ED) C4 | C2 C2 C2 D2- | D2 _E2 F2 G2 | %12
w: God most fer- vent-|ly and _ _|pray that _ He|pre- serve _ us|poor sin- ners who|_ on earth are|
w: up the splen- did|gate which _ _|ev- er _ had|been clos- * ed.|Who trusts in this|_ lives joy- ful-|
w: block to flesh and|blood the _ _|road to _ heav-|en's glo- * ry.|The key is faith.|_ To Him be|
w: shun the world of|sin to _ _|prove us _ God's|own chil- * dren;|we lift our eyes,|_ His eyes look|
w: self through heav- en's|door, as _ _|we in _ faith|de- clare _ it.|There will our spir-|* its find their|
 !breath!A4 G2 G2- | G2 F2 D2 F2 | G2 F2 !breath!=E4 | D2 D4 D2 | C2 C2 C4 | !breath!D4 C4 | %18
w: bound, and who,|_ with man- y|dan- gers round,|strive hope- less-|ly with- out|Him. Hal-|
w: ly and strives|_ that he pre-|pared may be|our Lord to|fol- low af-|ter. *|
w: true and right-|* eous- ness will|fol- low you,|as God in|heav'n has or-|dered. *|
w: down His faith-|* ful- ness and|love to show|un- til we|meet in hea-|ven. *|
w: voice and in|_ e- ter- nal|song re- joice.|God will- ing,|we shall reach|it. *|
 D2 (_E4 DC) | !breath!_B,2 CC (D4- | D2 CB, C4) | C8 |] %22
w: le- lu- * *|ja, hal- le- lu-||ja!|
w: ||||
w: ||||
w: ||||
w: ||||
V:3
 x8 | x8 | x8 | x8 | x8 | x8 | x8 | x8 | x8 | x8 | x8 | x8 | x8 | x8 | x8 | x8 | x8 | =B,4 x4 | %18
 x8 | x8 | x8 | x8 |] %22
V:4
 z2 B,2 B,2 A,2 | G,G, F,4 D,2 | !breath!A,2 A,2 (F,2 E,D,) | C,2 G,4 G,2 | (D,2 _E,2) F,4 | %5
w: 1. To- day we|all re- mem- ber|well that Christ _ _|has gone to|hea- * ven,|
w: 2. Praise be to|God, the way is|straight, the road _ _|to hea- ven|o- * pen.|
w: 3. Who fol- lows|not nor does His|will toward God _ _|is liv- ing|false- * ly;|
w: 4. The heav'n- ly|jour- ney starts with-|in, un- til _ _|we find the|Fa- * ther|
w: 5. Then joy shall|fill our days yet|more when God _ _|to Je- sus|takes _ us|
 z2 B,2 B,2 A,2 | G,G, F,4 D,2 | !breath!A,2 A,2 (F,2 E,D,) | C,2 G,4 G,2 | (D,2 _E,2) F,4 | %10
w: and thank our|God most fer- vent-|ly and pray _ _|that He pre-|serve _ us|
w: Christ o- pens|up the splen- did|gate which ev- * *|er had been|clos- * ed.|
w: for He will|block to flesh and|blood the road _ _|to heav- en's|glo- * ry.|
w: and al- ways|shun the world of|sin to prove _ _|us God's own|chil- * dren;|
w: and to Him-|self through heav- en's|door, as we _ _|in faith de-|clare _ it.|
 z2 C2 B,2 A,2 | (G,3 F,/_E,/) D,2 E,E, | !breath!F,2 F,2 _E,2 F,2 | G,2 A,2 B,3 A, | %14
w: poor sin- ners|who _ _ on earth are|bound, and who, with|man- y dan- gers|
w: Who trusts in|this _ _ lives joy- ful-|ly and strives that|he pre- pared may|
w: The key is|faith. _ _ To Him be|true and right- eous-|ness will fol- low|
w: we lift our|eyes, _ _ His eyes look|down His faith- ful-|ness and love to|
w: There will our|spir- * * its find their|voice and in e-|ter- nal song re-|
 !breath!G,4 A,4 | B,6 B,2 | C2 B,2 _A,4 | G,4 z4 | z8 | G,4 D,4 | (_E,6 F,G,) | A,8 |] %22
w: round, strive|hope- less-|ly with- out|Him.||Hal- le-|lu- * *|ja!|
w: be our|Lord to|fol- low af-|ter.|||||
w: you, as|God in|heav'n has or-|dered.|||||
w: show un-|til we|meet in hea-|ven.|||||
w: joice. God|will- ing,|we shall reach|it.|||||
V:5
 x8 | x8 | x8 | x8 | x8 | x8 | x8 | x8 | x8 | x8 | x8 | x8 | x8 | x8 | x8 | x8 | x8 | x8 | x8 | %19
 x8 | _E,8 | F,8 |] %22

